X: 3
T: Devanny's Goat
R: reel
M: 4/4
L: 1/8
K: Dmaj
DFAB AFAB|defe dBAF|DF~F2 B/c/dAF|EFDF ~E3F|[A3D3]B AFAB|defe dBAg|fedB AF~F2|1AFEA ~F3E:|2AFEA FAD2||a3b afdf|agfa efdB|ABde fddf|gefd efdB|ABde ~f3a|gefd edBd|~A2dB AF~F2|1AFEA FAD2:|2AFEA F3E||


Tune 2881	Setting 2881

